X:4
T:Reel de Montebello
C:Richard Forest
S:Laurence Beaudry
Z:robin.beech@mcgill.ca
R:reel
M:4/4
L:1/8
K:Amin
|: EABc ecBA | FABc ecBA | GABc dBGB | edBA GEED |
EABc ecBA | FABc ecBA | GABc dBGE |1 EDEG A3A :|2 EDEG A2ce |:
aece gecA | GABc dcBd | gddf ddgd | edef e2ce |
aece gecA | GABc dcBd | gedg edBd |1 cBcd cAce :|2 cBcd cBAG || E8 |]

